X:1
T:The Bold Princess Royal
M:3/4
L:1/4
K:Eb
 E3/4 F/4| G/2 B/2- B A| G/2 F z/2 D| F E3/2 F/2| E3/2 z/2 D3/4 E/4|\
 F F G| A G F| E3/2 B/2 c| B3/2 z/2 G3/4 A/4| B G3/2 B/2| e3/2 z/2 B3/4 B/4|\
 d G3/2 E/2| F3/2 z/2F/2-G/2| A c3/2 d/2| c/2B/2 z D/4- E3/4| F/2 E3/2 F|\
 E3/2 z/2||
